X: 2090
T: Çehrendeki Tılsımda Bahar
C: Yılmaz Karakoyunlu
O: Turkey
F: http://compmusic.upf.edu/node/140
N: buselik--sarki--aksak--cehrendeki_tilsimda--yilmaz_karakoyunlu
N: makam= buselik
N: form= sarki
N: usul= aksak = 9/8
M: 9/8
L: 1/16
K: C    
Q: 1/4=120
%%MIDI tuningsystem comma53
c4 B4 cBA^G A6 | e4d4ed cde6  | a4 g4 agfe d6 | 
w:  ARANAĞME  |   |   | 
B2 d2c2 B2cB A^GA6  | c4 B4 cBA^G A6 | \
w:   |  ARANAĞME  | 
e4d4ed cde6  | 
w:   | 
a4 g4 agfe d6 | B2 d2c2 B2cB A^GA6  | \
w:   |   | 
G4 c4 B2c2 e2d2 c2 | 
w:  Çeh ren de ki  tıl  | 
B2 cBBA A^GA4cB AGA2  | e4 e2f2 e3d edc2 d2 | 
w:  sım *  *  da  *  ba *  har  SAZ  |  lez ze ti  gör  | 
e8ed cBcB A^GA2  | G4 c4 B2c2 e2d2 c2 | \
w:  düm   SAZ  |  Çeh ren de ki  tıl  | 
B2 cBBA A^GA4cB AGA2  | 
w:  sım *  *  da  *  ba *  har  SAZ  | 
e4 e2f2 e3d edc2 d2 | e8ed cBcB cde2  | \
w:  lez ze ti  gör  |  düm   SAZ  | 
a2ag g2gf f2fe e2f2 g2 | 
w:  Hül *  *  ya *  *  la *  *  rı  il  | 
g2 gff2 feed cBc4z2  | B4 B2d2 c3B cBA2 A^G | 
w:  ham  *  *  e de *  cek   |  kud re ti  gör  | 
A8ed cBcB cde2  | a2ag g2gf f2fe e2f2 g2 | 
w:  düm   SAZ  |  Hül *  *  ya *  *  la *  *  rı  il  | 
g2 gff2 feed cBc4z2  | B4 B2d2 c3B cBA2 A^G | 
w:  ham  *  *  e de *  cek   |  kud re ti  gör  | 
A8ef ^gac'b aga2  | a4 a4 b2c'2 b2a2 a^g | \
w:  düm   SAZ  |  Bül bül le ri  sus  | 
a4b2 c'2c'4c'b abc'2  | 
w:  muş  o  ha zin   | 
^g4 g2a2 g3f gff2 fe | e8ef ^gac'b aga2  | \
w:  bah çe de  ey  |  vah   SAZ  | 
a4 a4 b2c'2 b2a2 a^g | 
w:  Bül bül le ri  sus  | 
a4b2 c'2c'4c'b abc'2  | ^g4 g2a2 g3f gff2 fe | \
w:  muş  o  ha zin   |  bah çe de  ey  | 
e8ed cBcB cde2  | 
w:  vah   SAZ  | 
a2ag g2gf f2fe e2f2 g2 | g2 gff2 feed cBc4z2  | 
w:  Hül *  *  ya *  *  la *  *  rı  il  |  ham  *  *  e de *  cek   | 
B4 B2d2 c3B cBA2 A^G | A8ed cBcB cde2  | \
w:  kud re ti  gör  |  düm   SAZ  | 
a2ag g2gf f2fe e2f2 g2 | 
w:  Hül *  *  ya *  *  la *  *  rı  il  | 
g2 gff2 feed cBc4z2  | B4 B2d2 c3B cBA2 A^G | 
w:  ham  *  *  e de *  cek   |  kud re ti  gör  | 
A8|
w:  düm    | 


